!!!COM1: Joplin, Scott
!!!CDT1: 1868/11/24/-1917/04/01/
!!!COM2: Hayden, Scott
!!!CDT2: 1882///-1915///
!!!OTL: Something Doing
!!!ONB: A Ragtime Two Step
!!!PPR: Val A. Reis Music Co.; St. Louis, Missouri
!!!PDT: 1903///
!! ODT is estimate:
!!!ODT: 1903///
!!!ENC: Craig Stuart Sapp
!!!YEC: Copyright 2001 by Craig Stuart Sapp
!!!YEN: United States of America
**kern	**kern
*lh	*rh
*Ilh	*Irh
*clefF4	*clefG2
*k[b-]	*k[b-]
*M2/4	*M2/4
*MM100	*MM100
*>[A,B,B1,B,B2,C,C1,C,C2,D,E,E,F,F1,F,F2]	*>[A,B,B1,B,B2,C,C1,C,C2,D,E,E,F,F1,F,F2]
*>A	*>A
16F	16f
16G	16g
=1	=1
16A	16a
8f	8ff
[16e	[16ee
4e]	4ee]
=2	=2
16d	16dd
16c#	16cc#
16d	16dd
[16B-	[16b-
4B-]	4b-]
=3	=3
16B-	16b-
16A	16a
16B-	16b-
[16G	[16g
16G]	16g]
16F	16a
16E	16b-
16D	16bn
=4	=4
8C	8cc
8r	8r
8CC 8C	8cc 8ee 8gg 8ccc
8r	8r
=5!|:	=5!|:
*>B	*>B
8FF 8F	16a
.	16cc
8A 8c 8f	16ff
.	[16aa
8C	16aa]
.	16ff
8A 8c 8f	16cc
.	16a
=6	=6
*^	*
8C	4C	8cc 8ee
8B- 8c 8e	.	8b- 8dd
8F	4F	4a 4cc
8A 8c 8f	.	.
*v	*v	*
=7	=7
8GG 8G	16b- 16bb-
.	16ee-
8B- 8c 8e	16gg
.	[16b- [16bb-
8GG 8G	16b-] 16bb-]
.	16ee 16gg
8GG# 8G#	16bn 16bbn
.	[16cc [16ccc
=8	=8
8AA 8A	16cc] 16ccc]
.	16ccc
8C 8c	16aa
.	16ff
8BB- 8B-	16dd
.	16dd-
8AA 8A	16cc
.	16b-
=9	=9
8FF 8F	16a
.	16cc
8A 8c 8f	16ff
.	[16aa
8C	16aa]
.	16ff
8A 8c 8f	16cc
.	16a
=10	=10
*^	*
8C	4C	8cc 8ee
8c 8e	.	8b- 8dd
*v	*v	*
8F	8a 8cc
8F# 8A 8c 8d#	8a 8aa
=11	=11
4G 4c 4e	16g 16gg
.	16cc
.	16ee
.	[16cc [16dd [16ff# [16aa
8D 8d	16cc] 16dd] 16ff#] 16aa]
.	16cc 16dd 16ff# 16aa
8GG 8G	8dd 8ffn 8bbn
=12	=12
8C 8c	[4cc [4ee [4ccc
8BB- 8B-	.
8AA 8A	8cc] 8ee] 8ccc]
8GG 8G	8r
=13	=13
8FF 8F	16a
.	16cc
8A 8c 8f	16ff
.	[16aa
8C	16aa]
.	16ff
8A 8c 8f	16cc
.	16a
=14	=14
8C	8cc 8ee
8B- 8c 8e	8b- 8dd
8F	4a 4cc
8A 8c 8f	.
=15	=15
8GG 8G	16b- 16bb-
.	16ee
8B- 8c 8e	16gg
.	[16b- [16bb-
8GG 8G	16b-] 16bb-]
.	16ee 16gg
8GG# 8G#	16bn 16bbn
.	[16cc [16ccc
=16	=16
8AA 8A	16cc] 16ccc]
.	16ccc
8C 8c	16aa
.	16ff
8BB- 8B-	16dd
.	16dd-
8AA 8A	8cc
=17	=17
8BB- 8B-	16dd
.	16bb-
8B- 8d 8g	16ccc
.	[16ee [16eee
8BB- 8B-	16ee] 16eee]
.	16bb-
8GG# 8G#	8dd 8ddd
=18	=18
8AA 8A	16cc 16ccc
.	16ff 16aa
8A 8c 8f	16dd 16ddd
.	[16cc [16ccc
8A 8c 8f	16cc] 16ccc]
.	16aa
8r	16ff
.	16f#
=19	=19
8C	16g
.	8cc
8B- 8c 8e	.
.	16f#
8E	16g
.	8g 8b- 8gg
8G 8B- 8c	.
.	[16fn [16a [16ffn
=20	=20
*>B1	*>B1
*^	*
8F	[4A [4c	4f_ 4a_ 4ff_
8CC 8C	.	.
8DD 8D	8A] 8c]	8f] 8a] 8ff]
8EE 8E	8r	8r
*v	*v	*
=21:|!	=21:|!
*>B2	*>B2
8F 8A 8c	8f] 8a] 8ff]
8r	16cc
.	16dd
4r	16ee
.	16ff
.	16gg
.	16aa
=22!|:	=22!|:
*>C	*>C
8G	16b- 16bb-
.	16ee
8B- 8c 8e	16gg
.	[16b- [16ee [16aa
8C	16b-] 16ee] 16aa]
.	16ee
8B- 8c 8e	8b- 8gg
=23	=23
8E	16g
.	16f#
8B- 8c 8e	16g
.	[16dd
8C	16dd]
.	16cc
8B- 8c 8e	16g
.	16g#
=24	=24
8F	16a
.	16c
8A 8c	16d
.	16d#
8C	16e
.	16f
8B- 8c 8e	16g
.	16g#
=25	=25
8F	16a
.	16g#
8A 8c 8f	16a
.	[16a [16cc [16ff
8C	16a] 16cc] 16gg]
.	16gg
8A 8c 8f	16gn
.	16a
=26	=26
*	*^
8G	2b-	16r
.	.	16ccc
8B- 8c 8e	.	16bb-
.	.	16gg
8C	.	16ee
.	.	8.ccc
8B- 8c 8e	.	.
*	*v	*v
=27	=27
8G	16b-
.	16a
8B- 8c 8e	16b-
.	[16b- [16ee- [16aa
8C	16b-] 16ee-] 16aa]
.	16gg
8B- 8c 8e	16ee
.	16cc
=28	=28
*	*^
8F	2a	16r
.	.	16ccc
8A 8c 8f	.	16aa
.	.	16ff
8C	.	16dd
.	.	8.cc
8A 8c 8f	.	.
*	*v	*v
=29	=29
8F	16a
.	16g#
8A 8c 8f	16a
.	[16a [16cc [16gg
8C	16a] 16cc] 16gg]
.	16ff
8A 8c 8f	16cc
.	16a
=30	=30
8F#	16dd
.	16ff#
8A 8c 8d	16aa
.	[16dd [16ddd
8D	16dd] 16ddd]
.	16ccc
8A 8c 8d	16aa
.	16ff#
=31	=31
8F#	16dd
.	16ff#
8A 8c 8d	16aa
.	[16dd [16ddd
8D	16dd] 16ddd]
.	16ccc
8A 8c 8d	16aa
.	16ff#
=32	=32
8F#	16dd
.	16cc#
8A 8c 8d	16dd
.	16ee-
8D	16dd
.	16ccn
8A 8c 8d	16b-
.	16a
=33	=33
8G	16b-
.	16g
8B- 8d	16b-
.	16dd
8B- 8d	8gg
8r	8r
=34	=34
8BB- 8B-	16dd
.	16cc#
8B- 8d 8f 8g	16dd
.	[16aa
8BB- 8B-	16aa]
.	16gg
8BBn 8Bn	16ff
.	16dd
=35	=35
8C 8c	16a
.	16g#
8A 8c 8f	16a
.	[16dd
8C	16dd]
.	16cc
8A 8c	16f
.	16f#
=36	=36
8E	16g
.	8cc
8B- 8c 8e	.
.	16f#
8C	16g
.	8g 8b- 8gg
8B- 8c 8e	.
.	[16fn [16a [16ffn
=37	=37
*>C1	*>C1
8F 8A 8c	8f] 8a] 8ff]
8r	16cc
.	16dd
4r	16ee
.	16ff
.	16gg
.	16aa
=38	=38
*>C2	*>C2
*^	*
8F	[4A [4c	[4f [4a [4ff
8CC 8C	.	.
8DD 8D	8A] 8c]	8f] 8a] 8ff]
8EE 8E	8r	8r
*v	*v	*
=39||	=39||
*>D	*>D
8FF 8F	16a
.	16cc
8A 8c 8f	16ff
.	[16aa
8C	16aa]
.	16ff
8A 8c 8f	16cc
.	16a
=40	=40
*^	*
8C	4C	8cc 8ee
8B- 8c 8e	.	8b- 8dd
8F	4F	4a 4cc
8A 8c 8f	.	.
*v	*v	*
=41	=41
8GG 8G	16b- 16bb-
.	16ee-
8B- 8c 8e	16gg
.	[16b- [16bb-
8GG 8G	16b-] 16bb-]
.	16ee 16gg
8GG# 8G#	16bn 16bbn
.	[16cc [16ccc
=42	=42
8AA 8A	16cc] 16ccc]
.	16ccc
8C 8c	16aa
.	16ff
8BB- 8B-	16dd
.	16dd-
8AA 8A	16cc
.	16b-
=43	=43
8FF 8F	16a
.	16cc
8A 8c 8f	16ff
.	[16aa
8C	16aa]
.	16ff
8A 8c 8f	16cc
.	16a
=44	=44
*^	*
8C	4C	8cc 8ee
8c 8e	.	8b- 8dd
*v	*v	*
8F	8a 8cc
8F# 8A 8c 8d#	8a 8aa
=45	=45
4G 4c 4e	16g 16gg
.	16cc
.	16ee
.	[16cc [16dd [16ff [16aa
8D 8d	16cc] 16dd] 16ff] 16aa]
.	16cc 16dd 16ff 16aa
8GG 8G	8dd 8ffn 8bbn
=46	=46
8C 8c	[4cc [4ee [4ccc
8BB- 8B-	.
8AA 8A	8cc] 8ee] 8ccc]
8GG 8G	8r
=47	=47
8FF 8F	16a
.	16cc
8A 8c 8f	16ff
.	[16aa
8C	16aa]
.	16ff
8A 8c 8f	16cc
.	16a
=48	=48
8C	8cc 8ee
8B- 8c 8e	8b- 8dd
8F	4a 4cc
8A 8c 8f	.
=49	=49
8GG 8G	16b- 16bb-
.	16ee
8B- 8c 8e	16gg
.	[16b- [16bb-
8GG 8G	16b-] 16bb-]
.	16ee 16gg
8GG# 8G#	16bn 16bbn
.	[16cc [16ccc
=50	=50
8AA 8A	16cc] 16ccc]
.	16ccc
8C 8c	16aa
.	16ff
8BB- 8B-	16dd
.	16dd-
8AA 8A	8cc
=51	=51
8BB- 8B-	16dd 16ddd
.	16bb-
8B- 8d 8g	16ccc
.	[16ee [16eee
8BB- 8B-	16ee] 16eee]
.	16bb-
8GG# 8G#	8dd 8ddd
=52	=52
8AA 8A	16cc 16ccc
.	16ff 16aa
8A 8c 8f	16dd 16ddd
.	[16cc [16ccc
8A 8c 8f	16cc] 16ccc]
.	16aa
8r	16ff
.	16f#
=53	=53
8C	16g
.	8cc
8B- 8c 8e	.
.	16f#
8E	16g
.	8g 8b- 8gg
8E 8B- 8c	.
.	[16fn [16a [16ffn
=54	=54
*^	*
8F	[4A [4c	4f] 4a] 4ff]
8C	.	.
8FF	8A] 8c]	8f 8a 8ff
8r	8r	8r
*v	*v	*
=55!|:	=55!|:
*>E	*>E
*k[b-e-]	*k[b-e-]
*B-:	*B-:
8BB-	16ff
.	16een
8F 8B- 8d	16ff
.	[16gg
8FF	16gg]
.	16ff
8F 8B- 8d	16cc
.	16dd
=56	=56
8C	16ee-
.	16dd
8F 8A 8e-	16ee-
.	[16a
8FF	4a]
8F 8A 8e-	.
=57	=57
8C	16a
.	16g#
8F 8c 8e-	16a
.	[16dd
8FF	16dd]
.	16cc
8F 8c 8e-	16gn
.	16a
=58	=58
8BB-	16b-
.	16a
8F 8B- 8d	16b-
.	[16g
8FF	8g]
8F 8B- 8d	8dd
=59	=59
8BB- 8B-	8cc
8F 8B- 8d	8b-
8D 8d	8g
8D- 8d-	8g#
=60	=60
8C 8c	16a
.	16ff
8F 8A 8e-	16ee-
.	16cc
8FF	8a
8F 8A 8e-	8ee-
=61	=61
8C	8dd
8F 8A 8e-	8cc
8FF	8g
8F 8A 8e-	8a
=62	=62
8BB-	16b-
.	16ff
8F 8B- 8d	16dd
.	16b-
8FF	4g
8F 8B- 8d	.
=63	=63
8BB-	16ff
.	16een
8F 8B- 8d	16ff
.	[16gg
8FF	16gg]
.	16ff
8F 8B- 8d	16cc
.	16dd
=64	=64
8C	16ee-
.	16dd
8F 8A 8e-	16ee-
.	[16a
8FF	4a]
8F 8A 8e-	.
=65	=65
8C	16a
.	16g#
8F 8c 8e-	16a
.	[16dd
8FF	16dd]
.	16cc
8F 8c 8e-	16gn
.	16a
=66	=66
8BB-	16b-
.	16a
8F 8B- 8d	16b-
.	[16g
8FF	4g]
8F 8B- 8d	.
=67	=67
8EE- 8E-	8g 8ee-
8G 8B- 8e-	8g 8b-
8GG 8G	8b- 8cc
8GG- 8G-	8b- 8cc#
=68	=68
*	*^
8FF 8F	2b-	16dd
.	.	16cc#
8F 8B- 8d	.	16dd
.	.	[16gg
8FF	.	16gg]
.	.	16ff
8F 8B- 8d	.	16dd
.	.	16b-
*	*v	*v
=69	=69
8C	16g
.	16g#
8F 8A 8e-	16a
.	[16a [16ff
8FF	16a] 16ff]
.	16ee
8F 8A 8e-	16g
.	16a
=70	=70
8BB-	[4b-
8F 8B- 8d	.
8F 8B- 8d	8b-]
8r	8ff
=71:||:	=71:!!:
*>F	*>F
8BB- 8B-	16b- 16dd 16bb-
.	16b-
8F 8B- 8d	16cc
.	16cc#
8D 8d	16dd
.	8aa
8D- 8d-	.
.	16gg
=72	=72
8C 8c	8ff
8F 8A 8e-	16a
.	[16cc [16ee-
8FF	8.cc] 8.ee-]
8F 8A 8e-	.
.	[16b- [16dd [16bb-
=73	=73
8BB- 8B-	16b-] 16dd] 16bb-]
.	16b-
8F 8B- 8d	16cc
.	16cc#
8D 8d	16dd
.	8aa
8D- 8d-	.
.	16gg
=74	=74
8C 8c	8ff
8FF 8F	16g
.	[16cc [16ee-
8AA 8A	8.cc] 8.ee-]
8AA- 8A-	.
.	[16g [16bn [16dd [16gg
=75	=75
8GG 8G	16g] 16bn] 16dd] 16gg]
.	16g
8G 8Bn 8d 8f	16bn
.	16dd
8BBn	16gg
.	8ff
8G 8d 8f	.
.	[16g [16cc [16ee-
=76	=76
8CC 8C	8g] 8cc] 8ee-]
8DD 8D	8f 8g 8bn 8dd
8EE- 8E-	4e- 4g 4cc
8E- 8G 8c	.
=77	=77
8CC 8C	8en 8b- 8dd
8G 8B- 8c	8e 8b- 8cc
8EEn 8En	8b- 8dd
8G 8B- 8c	8b- 8cc
=78	=78
8FF 8F	8a 8ee- 8gg
8F 8c 8e-	8a 8ee- 8ff
8FF	8ee- 8aa 8ddd
8F 8A 8e-	8ee- 8aa 8ccc
=79	=79
8BB-	16dd 16bb-
.	16b-
8F 8B- 8d	16cc
.	16cc#
8D 8d	16dd
.	8aa
8D- 8d-	.
.	16gg
=80	=80
8C 8c	8ff
8F 8A 8e-	16a
.	[16cc [16ee-
8FF	8.cc] 8.ee-]
8F 8A 8e-	.
.	[16b- [16dd [16bb-
=81	=81
8BB- 8B-	16b-] 16dd] 16bb-]
.	16b-
8F 8B- 8d	16cc
.	16cc#
8D 8d	16dd
.	8aa
8D- 8d-	.
.	16gg
=82	=82
8C 8c	8ff
8FF 8F	16a
.	[16cc [16ee-
8GG 8G	8.cc] 8.ee-]
8AA- 8A-	.
.	[16g [16b [16dd [16gg
=83	=83
8GG 8G	16g] 16b] 16dd] 16gg]
.	16g
8G 8Bn 8d 8f	16bn
.	16dd
8BBn	16gg
.	8ff
8G 8d 8f	.
.	[16g [16cc [16ee-
=84	=84
8CC 8C	8g] 8cc] 8ee-]
8DD 8D	8f 8g 8bn 8dd
8EE- 8E-	8e- 8g 8cc
8EEn 8En	8b- 8cc# 8gg
=85	=85
8FF 8F	16b- 16dd 16ff
.	16f
8F 8B- 8d	16g
.	16g#
8FF	16a
.	16ff
8F 8A 8e-	16gn
.	16a
=86	=86
*>F1	*>F1
8BB-	[4b-
8F 8B- 8d	.
8F 8B- 8d	8b-]
8r	8ff
=87	=87
*>F2	*>F2
*^	*
8B- 8d	4d	4b-
8FF 8F	.	.
*v	*v	*
8BBB- 8BB-	8b- 8dd 8bb-
==;	==;
*-	*-
